packages/astro-components-stencil/src/icons/format-align-center.svg

<svg xmlns="http://www.w3.org/2000/svg" viewBox="0 0 24 24"><g xmlns="http://www.w3.org/2000/svg" id="format-align-center" fill-rule="nonzero">
            <path d="M7 16c0 .55.45 1 1 1h8c.55 0 1-.45 1-1s-.45-1-1-1H8c-.55 0-1 .45-1 1zm-3 5h16c.55 0 1-.45 1-1s-.45-1-1-1H4c-.55 0-1 .45-1 1s.45 1 1 1zm0-8h16c.55 0 1-.45 1-1s-.45-1-1-1H4c-.55 0-1 .45-1 1s.45 1 1 1zm3-5c0 .55.45 1 1 1h8c.55 0 1-.45 1-1s-.45-1-1-1H8c-.55 0-1 .45-1 1zM3 4c0 .55.45 1 1 1h16c.55 0 1-.45 1-1s-.45-1-1-1H4c-.55 0-1 .45-1 1z"/>
        </g></svg>

<svg width="24" height="24" viewBox="0 0 24 24" fill="none" xmlns="http://www.w3.org/2000/svg">
<path fill-rule="evenodd" clip-rule="evenodd" d="M4 5C3.45 5 3 4.55 3 4C3 3.45 3.45 3 4 3H20C20.55 3 21 3.45 21 4C21 4.55 20.55 5 20 5H4ZM7 8C7 8.55 7.45 9 8 9H16C16.55 9 17 8.55 17 8C17 7.45 16.55 7 16 7H8C7.45 7 7 7.45 7 8ZM20 13H4C3.45 13 3 12.55 3 12C3 11.45 3.45 11 4 11H20C20.55 11 21 11.45 21 12C21 12.55 20.55 13 20 13ZM7 16C7 16.55 7.45 17 8 17H16C16.55 17 17 16.55 17 16C17 15.45 16.55 15 16 15H8C7.45 15 7 15.45 7 16ZM4 21H20C20.55 21 21 20.55 21 20C21 19.45 20.55 19 20 19H4C3.45 19 3 19.45 3 20C3 20.55 3.45 21 4 21Z" fill="black"/>
</svg>
